src/Resource_Files/fluent/format-case-lowercase.svg

<svg clip-rule="evenodd" fill-rule="evenodd" stroke-linejoin="round" stroke-miterlimit="2" viewBox="0 0 16 16" xmlns="http://www.w3.org/2000/svg"><g fill="#1abc9c"><path d="m6.273 9.936v-.086c0-.235-.035-.471-.106-.706-.068-.228-.172-.434-.313-.617-.136-.178-.315-.32-.535-.43-.226-.114-.503-.166-.828-.166-.22 0-.413.016-.58.05-.165.034-.307.073-.424.12-.13.051-.239.095-.327.132-.143.061-.252.081-.319.081-.187 0-.34-.075-.457-.232-.106-.142-.141-.269-.141-.364 0-.14.078-.321.324-.472.135-.082.309-.158.523-.224.198-.06.42-.111.668-.151.25-.041.504-.061.765-.061.537 0 .99.087 1.358.255.381.173.687.407.923.699.233.289.401.618.502.987.097.354.146.72.146 1.099v3.809c0 .167-.058.301-.163.406-.101.101-.238.162-.418.162-.171 0-.308-.055-.415-.151-.119-.107-.183-.245-.183-.417v-.066c-.165.121-.342.235-.533.344-.436.248-.947.375-1.535.375-.336 0-.653-.042-.949-.126-.311-.087-.581-.222-.813-.402-.239-.186-.425-.417-.558-.694-.129-.27-.197-.591-.197-.966 0-.456.115-.827.332-1.117.21-.282.501-.509.878-.675.347-.153.766-.259 1.256-.316.465-.053.98-.08 1.543-.08zm0 1.121h-.561c-.404 0-.79.014-1.158.042-.349.026-.661.083-.936.171-.241.077-.435.185-.577.332-.123.126-.174.303-.174.522 0 .363.101.633.335.796.264.184.594.271.987.271.26 0 .515-.046.766-.138.26-.094.493-.212.7-.355.196-.135.355-.281.474-.44.088-.119.144-.221.144-.319z"/><path d="m10.116 13.703c-.01.131-.064.251-.171.356-.109.108-.25.168-.425.168-.184 0-.325-.067-.428-.18-.104-.114-.153-.244-.153-.388v-10.417c0-.187.067-.321.171-.414.092-.083.225-.14.41-.14.166 0 .298.05.402.133.126.102.195.24.195.421v4.174c.097-.077.202-.152.314-.223.394-.251.893-.383 1.501-.383.431 0 .836.073 1.214.22.381.146.714.349 1.001.605.289.259.519.563.69.912.175.356.262.734.262 1.133v1.733c0 .39-.087.761-.263 1.113-.17.341-.398.646-.685.913-.286.267-.615.479-.988.635-.377.158-.776.238-1.2.238-.542 0-1.029-.121-1.459-.359-.142-.078-.271-.162-.388-.25zm3.804-4.023v1.733c0 .219-.051.432-.151.639-.106.218-.246.411-.42.58-.175.168-.382.304-.621.407-.235.101-.479.152-.733.152-.271 0-.519-.05-.745-.151-.236-.105-.442-.231-.616-.379-.169-.143-.303-.29-.398-.441-.071-.112-.119-.202-.119-.281v-2.259c0-.271.052-.514.158-.729.108-.217.247-.401.418-.55.172-.15.37-.266.592-.347.225-.082.456-.123.694-.123.264 0 .513.05.749.152.242.104.454.239.635.405.175.161.313.349.412.562.096.208.145.418.145.63z"/></g></svg>

<?xml version="1.0" encoding="UTF-8" standalone="no"?>
<!DOCTYPE svg PUBLIC "-//W3C//DTD SVG 1.1//EN" "http://www.w3.org/Graphics/SVG/1.1/DTD/svg11.dtd">
<svg width="100%" height="100%" viewBox="0 0 16 16" version="1.1" xmlns="http://www.w3.org/2000/svg" xmlns:xlink="http://www.w3.org/1999/xlink" xml:space="preserve" xmlns:serif="http://www.serif.com/" style="fill-rule:evenodd;clip-rule:evenodd;stroke-linejoin:round;stroke-miterlimit:2;">
    <path d="M6.273,9.936L6.273,9.85C6.273,9.615 6.238,9.379 6.167,9.144C6.099,8.916 5.995,8.71 5.854,8.527C5.718,8.349 5.539,8.207 5.319,8.097C5.093,7.983 4.816,7.931 4.491,7.931C4.271,7.931 4.078,7.947 3.911,7.981C3.746,8.015 3.604,8.054 3.487,8.101C3.357,8.152 3.248,8.196 3.16,8.233C3.017,8.294 2.908,8.314 2.841,8.314C2.654,8.314 2.501,8.239 2.384,8.082C2.278,7.94 2.243,7.813 2.243,7.718C2.243,7.578 2.321,7.397 2.567,7.246C2.702,7.164 2.876,7.088 3.09,7.022C3.288,6.962 3.51,6.911 3.758,6.871C4.008,6.83 4.262,6.81 4.523,6.81C5.06,6.81 5.513,6.897 5.881,7.065C6.262,7.238 6.568,7.472 6.804,7.764C7.037,8.053 7.205,8.382 7.306,8.751C7.403,9.105 7.452,9.471 7.452,9.85L7.452,13.659C7.452,13.826 7.394,13.96 7.289,14.065C7.188,14.166 7.051,14.227 6.871,14.227C6.7,14.227 6.563,14.172 6.456,14.076C6.337,13.969 6.273,13.831 6.273,13.659L6.273,13.593C6.108,13.714 5.931,13.828 5.74,13.937C5.304,14.185 4.793,14.312 4.205,14.312C3.869,14.312 3.552,14.27 3.256,14.186C2.945,14.099 2.675,13.964 2.443,13.784C2.204,13.598 2.018,13.367 1.885,13.09C1.756,12.82 1.688,12.499 1.688,12.124C1.688,11.668 1.803,11.297 2.02,11.007C2.23,10.725 2.521,10.498 2.898,10.332C3.245,10.179 3.664,10.073 4.154,10.016C4.619,9.963 5.134,9.936 5.697,9.936L6.273,9.936ZM6.273,11.057L5.712,11.057C5.308,11.057 4.922,11.071 4.554,11.099C4.205,11.125 3.893,11.182 3.618,11.27C3.377,11.347 3.183,11.455 3.041,11.602C2.918,11.728 2.867,11.905 2.867,12.124C2.867,12.487 2.968,12.757 3.202,12.92C3.466,13.104 3.796,13.191 4.189,13.191C4.449,13.191 4.704,13.145 4.955,13.053C5.215,12.959 5.448,12.841 5.655,12.698C5.851,12.563 6.01,12.417 6.129,12.258C6.217,12.139 6.273,12.037 6.273,11.939L6.273,11.057Z" style="fill:rgb(26,188,156);"/>
    <path d="M10.116,13.703C10.106,13.834 10.052,13.954 9.945,14.059C9.836,14.167 9.695,14.227 9.52,14.227C9.336,14.227 9.195,14.16 9.092,14.047C8.988,13.933 8.939,13.803 8.939,13.659L8.939,3.242C8.939,3.055 9.006,2.921 9.11,2.828C9.202,2.745 9.335,2.688 9.52,2.688C9.686,2.688 9.818,2.738 9.922,2.821C10.048,2.923 10.117,3.061 10.117,3.242L10.117,7.416C10.214,7.339 10.319,7.264 10.431,7.193C10.825,6.942 11.324,6.81 11.932,6.81C12.363,6.81 12.768,6.883 13.146,7.03C13.527,7.176 13.86,7.379 14.147,7.635C14.436,7.894 14.666,8.198 14.837,8.547C15.012,8.903 15.099,9.281 15.099,9.68C15.099,9.68 15.099,11.413 15.099,11.413C15.099,11.803 15.012,12.174 14.836,12.526C14.666,12.867 14.438,13.172 14.151,13.439C13.865,13.706 13.536,13.918 13.163,14.074C12.786,14.232 12.387,14.312 11.963,14.312C11.421,14.312 10.934,14.191 10.504,13.953C10.362,13.875 10.233,13.791 10.116,13.703ZM13.92,9.68L13.92,11.413C13.92,11.632 13.869,11.845 13.769,12.052C13.663,12.27 13.523,12.463 13.349,12.632C13.174,12.8 12.967,12.936 12.728,13.039C12.493,13.14 12.249,13.191 11.995,13.191C11.724,13.191 11.476,13.141 11.25,13.04C11.014,12.935 10.808,12.809 10.634,12.661C10.465,12.518 10.331,12.371 10.236,12.22C10.165,12.108 10.117,12.018 10.117,11.939C10.117,11.939 10.117,9.68 10.117,9.68C10.117,9.409 10.169,9.166 10.275,8.951C10.383,8.734 10.522,8.55 10.693,8.401C10.865,8.251 11.063,8.135 11.285,8.054C11.51,7.972 11.741,7.931 11.979,7.931C12.243,7.931 12.492,7.981 12.728,8.083C12.97,8.187 13.182,8.322 13.363,8.488C13.538,8.649 13.676,8.837 13.775,9.05C13.871,9.258 13.92,9.468 13.92,9.68Z" style="fill:rgb(26,188,156);"/>
</svg>
